X:178
T:Moll Spicer's Reel
M:6/8
L:1/8
B:Thompson's Compleat Collection of 200 Favourite Country Dances, vol. 2 (London, 1765)
Z:Transcribed and edited by Flynn Titford-Mock, 2007
Z:abc's:AK/Fiddler's Companion
K:G
G2B G2B | dBG F2D | E2G E2G | AcG "tr"F2D | G2B G2B | dBG F2D | EcB AGF | G3 G,3 :|
|: G2g "tr"g2 (f/g/) | G2g B2g | A2a "tr"a2 (g/a/) | A2a c2a | G2g "tr"G2 (f/g/) | G2g B2e | dcB AGF | G3 G,3 :|

